Numix-GalliumOS/48/actions/stock_select-row.svg

<svg xmlns="http://www.w3.org/2000/svg" viewBox="0 0 48 48">
 <rect width="8" height="28" x="20" y="-38" transform="matrix(0,1,-1,0,0,0)" style="fill:#cecece;opacity:1;fill-opacity:1;stroke:none;fill-rule:nonzero"/>
 <path d="m 8 8 l 0 2 l 0 8 l 0 2 l 0 8 l 0 2 l 0 8 l 0 2 l 10 0 l 2 0 l 20 0 l 0 -2 l 0 -30 l -20 0 l -2 0 l -10 0 z m 2 2 l 8 0 l 0 8 l -8 0 l 0 -8 z m 10 0 l 8 0 l 0 8 l -8 0 l 0 -8 z m 10 0 l 8 0 l 0 8 l -8 0 l 0 -8 z m -20 10 l 8 0 l 0 8 l -8 0 l 0 -8 z m 10 0 l 8 0 l 0 8 l -8 0 l 0 -8 z m 10 0 l 8 0 l 0 8 l -8 0 l 0 -8 z m -20 10 l 8 0 l 0 8 l -8 0 l 0 -8 z m 10 0 l 8 0 l 0 8 l -8 0 l 0 -8 z m 10 0 l 8 0 l 0 8 l -8 0 l 0 -8 z" style="fill:#888;opacity:1;fill-opacity:1;stroke:none;fill-rule:nonzero"/>
</svg>

<?xml version="1.0" encoding="UTF-8" standalone="no"?>
<svg
   xmlns:dc="http://purl.org/dc/elements/1.1/"
   xmlns:cc="http://creativecommons.org/ns#"
   xmlns:rdf="http://www.w3.org/1999/02/22-rdf-syntax-ns#"
   xmlns:svg="http://www.w3.org/2000/svg"
   xmlns="http://www.w3.org/2000/svg"
   xmlns:sodipodi="http://sodipodi.sourceforge.net/DTD/sodipodi-0.dtd"
   xmlns:inkscape="http://www.inkscape.org/namespaces/inkscape"
   viewBox="0 0 48 48"
   id="svg2"
   version="1.1"
   inkscape:version="0.91 r13725"
   sodipodi:docname="stock_select-row.svg">
  <metadata
     id="metadata98">
    <rdf:RDF>
      <cc:Work
         rdf:about="">
        <dc:format>image/svg+xml</dc:format>
        <dc:type
           rdf:resource="http://purl.org/dc/dcmitype/StillImage" />
        <dc:title />
      </cc:Work>
    </rdf:RDF>
  </metadata>
  <sodipodi:namedview
     pagecolor="#ffffff"
     bordercolor="#666666"
     borderopacity="1"
     objecttolerance="10"
     gridtolerance="10"
     guidetolerance="10"
     inkscape:pageopacity="0"
     inkscape:pageshadow="2"
     inkscape:window-width="1280"
     inkscape:window-height="998"
     id="namedview96"
     showgrid="true"
     inkscape:zoom="13.906434"
     inkscape:cx="23.813207"
     inkscape:cy="32.202171"
     inkscape:window-x="0"
     inkscape:window-y="0"
     inkscape:window-maximized="1"
     inkscape:current-layer="svg2">
    <inkscape:grid
       type="xygrid"
       id="grid4360" />
  </sodipodi:namedview>
  <defs
     id="defs4">
    <path
       id="SVGCleanerId_0"
       d="m 14 12 l 20 0 c 1.105 0 2 0.895 2 2 l 0 20 c 0 1.105 -0.895 2 -2 2 l -20 0 c -1.105 0 -2 -0.895 -2 -2 l 0 -20 c 0 -1.105 0.895 -2 2 -2 m 0 0" />
  </defs>
  <rect
     style="opacity:1;fill:#cecece;fill-opacity:1;fill-rule:nonzero;stroke:none;stroke-width:1;stroke-linejoin:round;stroke-miterlimit:4;stroke-dasharray:none;stroke-opacity:1"
     id="rect4135"
     width="8"
     height="28"
     x="20"
     y="-38"
     transform="matrix(0,1,-1,0,0,0)" />
  <path
     style="opacity:1;fill:#888888;fill-opacity:1;fill-rule:nonzero;stroke:none;stroke-width:1;stroke-linejoin:round;stroke-miterlimit:4;stroke-dasharray:none;stroke-opacity:1"
     d="M 8 8 L 8 10 L 8 18 L 8 20 L 8 28 L 8 30 L 8 38 L 8 40 L 18 40 L 20 40 L 40 40 L 40 38 L 40 8 L 20 8 L 18 8 L 8 8 z M 10 10 L 18 10 L 18 18 L 10 18 L 10 10 z M 20 10 L 28 10 L 28 18 L 20 18 L 20 10 z M 30 10 L 38 10 L 38 18 L 30 18 L 30 10 z M 10 20 L 18 20 L 18 28 L 10 28 L 10 20 z M 20 20 L 28 20 L 28 28 L 20 28 L 20 20 z M 30 20 L 38 20 L 38 28 L 30 28 L 30 20 z M 10 30 L 18 30 L 18 38 L 10 38 L 10 30 z M 20 30 L 28 30 L 28 38 L 20 38 L 20 30 z M 30 30 L 38 30 L 38 38 L 30 38 L 30 30 z "
     id="rect4149" />
</svg>
